X:400
%%etbk:tnset id:117,pos:1,rep:3x,ant:
%%etbk:wsite http://www.thesession.org/tunes/display/3226
%%etbk:pldat 2014-03-25T18:38
T: West Kerry
S: Dieter Sieber
Z: Piano Box Version by Martin Fleischmann
H: Created 2013-02-19 /  Last Modified 2013-02-19
M: 2/4
L: 1/8
R: polka
K:Ador
|:"am"!5!e!1!A !2!BA | eA B!1!A | "G"!1!G>!2!A !3!B!4!d | !1!GA !3!B!4!d |
"am"!5!eA BA | !5!eA B!1!A | "G"!1!G>!2!B !4!dB | "am"!2!B!1!A A2:|
|:"am"!2!e!4!a ag/a/ | "G"!5!ba !3!g!1!d | "am"!2!e!4!a ag/a/ | "G"!5!ba !3!g2 |
"am"!2!e!4!a ag/a/ | "G"!5!ba !3!g!1!d | !3!ed !5!g!1!G | "am"!2!B!1!A A2:|


